assets/frappe/mono.svg

<svg viewBox="0 0 24 24" xmlns="http://www.w3.org/2000/svg"><path d="m2.88 0c-1.59 0-2.88 1.29-2.88 2.88v18.24c0 1.59 1.29 2.88 2.88 2.88h18.24c1.59 0 2.88-1.29 2.88-2.88v-18.24c0-1.59-1.29-2.88-2.88-2.88zm5.52 6h8.024v2.111h-8.024zm0 5.385h7.49v2.113h-4.93v4.502h-2.56z"/></svg>

<svg xmlns="http://www.w3.org/2000/svg" viewBox="0 0 24 24"><path d="M2.88 0A2.88 2.88 0 0 0 0 2.88v18.24A2.88 2.88 0 0 0 2.88 24h18.24A2.88 2.88 0 0 0 24 21.12V2.88A2.88 2.88 0 0 0 21.12 0zM8.4 6h8.024v2.111H8.4zm0 5.385h7.49v2.113h-4.93V18H8.4z"/></svg>
